svg/ricky/side/emotion/smilelookingup.svg

<?xml version="1.0" encoding="UTF-8"?>
<svg width="500px" height="600px" viewBox="0 0 500 600" version="1.1" xmlns="http://www.w3.org/2000/svg" xmlns:xlink="http://www.w3.org/1999/xlink">
    <title>smilelookingup</title>
    <defs>
        <polygon id="path-1" points="0 0.084 173.37498 0.084 173.37498 192.102015 0 192.102015"></polygon>
    </defs>
    <g id="smilelookingup" stroke="none" stroke-width="1" fill="none" fill-rule="evenodd">
        <g transform="translate(154.000000, 64.000000)">
            <g id="face" transform="translate(0.000000, 0.916000)">
                <mask id="mask-2" fill="white">
                    <use xlink:href="#path-1"></use>
                </mask>
                <g id="Clip-5"></g>
                <path d="M171.0485,137.3859 C170.9035,137.5149 170.7925,137.6879 170.7625,137.9199 C169.5325,147.5449 162.4275,154.9569 155.6845,161.4389 C155.3625,161.3509 154.9875,161.4199 154.7385,161.7529 C150.6485,167.2129 148.0465,174.3569 142.1725,178.2569 C135.6435,182.5909 127.3675,181.2159 120.2965,179.1599 C116.3595,178.0159 112.5025,176.5929 108.6295,175.2519 C104.2835,173.7479 99.9385,172.2429 95.5935,170.7399 C87.9335,168.0879 80.0715,165.5149 73.3785,160.8089 C67.2355,156.4899 62.1385,149.8729 61.3945,142.2619 C61.3825,142.1729 61.3775,142.0839 61.3615,141.9949 C61.3175,141.4609 61.2915,140.9229 61.2915,140.3799 C61.2905,139.5659 60.3225,139.3819 59.8725,139.8209 C59.3965,139.9429 58.9965,140.4619 59.3065,141.0249 C59.5355,141.4389 59.6715,141.8779 59.7485,142.3229 C59.7655,142.5039 59.7815,142.6849 59.8035,142.8639 C59.8695,144.2729 59.2895,145.7079 58.2985,146.7449 C57.4495,147.6329 56.3585,148.1419 55.1935,148.3689 C54.8835,148.1629 54.5215,148.0429 54.1365,148.0699 C50.5765,148.3219 47.9105,145.0959 45.7255,142.7269 C42.8615,139.6229 40.1355,136.3869 37.5835,133.0219 C37.3715,132.7409 37.1115,132.5119 36.8265,132.3409 C36.7145,132.1489 36.5935,131.9609 36.4835,131.7669 C36.4775,131.7539 36.4705,131.7409 36.4655,131.7299 C36.4575,131.7139 36.4455,131.7029 36.4385,131.6889 C35.0865,129.2899 33.9885,126.7679 33.5095,124.0379 C33.2805,122.7339 33.2595,121.3619 33.5135,120.0479 C33.6395,119.9319 33.7595,119.7999 33.8645,119.6369 C34.9285,117.9939 36.6935,116.9089 38.5935,116.5359 C39.3825,116.6849 40.1795,116.6429 40.9345,116.4469 C41.3295,116.4939 41.7205,116.5739 42.1025,116.6899 C43.9485,117.2489 45.7145,118.6349 47.1935,119.8439 C48.7975,121.1549 50.1475,122.6169 51.0015,124.5219 C51.3435,125.2829 52.2755,125.5909 53.0785,125.4599 C53.3595,125.5239 53.6345,125.5319 53.8975,125.4909 C54.0605,125.4899 54.2135,125.4489 54.3445,125.3649 C54.8955,125.1449 55.3395,124.6929 55.5375,124.0629 C55.8915,122.9389 56.0095,121.8259 55.9535,120.7339 C56.0115,120.5409 56.0695,120.3499 56.1275,120.1569 C56.2285,119.8239 56.0615,119.4419 55.7715,119.2519 C55.5665,118.1719 55.2135,117.1139 54.7685,116.0819 C53.4955,109.0589 50.8125,102.3309 46.8585,96.3719 L48.4815,96.9899 C49.7575,97.4769 51.0675,98.1199 52.4235,98.3399 C53.5475,98.5229 54.5975,98.2619 55.4135,97.6389 C56.1265,97.9639 56.9745,97.9949 57.6545,97.5309 C59.3025,96.4039 60.7295,95.0759 61.9415,93.5309 C62.3575,93.0809 62.7225,92.5839 63.0085,92.0319 C63.1165,91.8239 63.1875,91.6189 63.2395,91.4179 C64.3075,89.7129 65.1595,87.8719 65.7715,85.9539 C68.4625,83.5629 69.2835,79.6619 69.2135,76.0009 C71.9845,79.3199 76.0605,81.4739 80.3875,81.9489 C85.9865,82.5659 91.3795,79.9259 94.7525,75.4969 C95.7055,74.2459 96.4525,72.8709 97.0065,71.4229 C97.2965,70.9069 97.5735,70.3849 97.8365,69.8559 C100.0565,73.5319 103.5775,76.4919 107.8265,77.3909 C112.8885,78.4609 118.0035,76.0769 120.5135,71.5449 C121.0575,70.5619 121.4295,69.5039 121.6355,68.4209 C121.9755,70.3099 122.5735,71.9479 124.0665,73.4409 C124.7105,74.0849 125.5285,74.6559 126.4205,75.1059 C127.9135,76.4769 129.7775,77.3779 132.1525,77.4499 C135.0275,77.5379 137.4765,75.7819 138.8615,73.3479 C139.9165,71.4949 140.3035,69.4359 140.4235,67.3429 C142.5005,70.4139 146.1235,72.4679 149.8855,72.2169 C153.7975,71.9559 157.1795,69.4299 158.8385,66.0089 C159.6525,66.4509 160.5355,66.7559 161.4605,66.9009 C161.5425,66.9399 161.6195,66.9879 161.7035,67.0239 C157.4145,72.4069 157.7175,80.3679 159.0825,86.7709 C160.6855,94.2959 164.1275,101.2539 166.9405,108.3659 C168.5625,112.4669 169.9905,116.6519 170.7915,120.9959 C170.8085,121.0859 170.8465,121.1519 170.8825,121.2199 C171.4685,126.5889 171.5235,132.0049 171.0485,137.3859 M117.8825,188.8349 C117.1195,189.6029 115.9015,189.9819 114.8755,190.2389 C113.7795,190.5129 112.5165,190.6419 111.4575,190.1569 C110.3375,189.6439 109.8645,188.4459 109.1055,187.5539 C108.7645,187.1539 108.3695,186.8629 107.9385,186.5719 C107.2825,186.1279 107.3515,185.6849 107.3305,184.9359 C107.2495,182.1359 107.1685,179.3349 107.0875,176.5349 C110.5705,177.7419 114.0595,178.9279 117.5675,180.0449 C117.5605,180.1429 117.5655,180.2449 117.6025,180.3579 C118.0745,181.8179 118.4025,183.3169 118.5215,184.8479 C118.6195,186.1059 118.8595,187.8539 117.8825,188.8349 M106.4555,3.6919 C105.7525,4.2209 104.9315,4.6619 104.0515,4.9889 C104.8065,4.4849 105.6125,4.0489 106.4555,3.6919 M136.7945,73.4409 C136.8195,73.4129 136.8435,73.3809 136.8685,73.3539 C135.8125,74.7409 134.3265,75.6979 132.5435,75.7819 C134.1465,75.4079 135.6635,74.6719 136.7945,73.4409 M143.5785,68.4159 C142.5945,67.5849 141.7735,66.5579 141.1925,65.4049 C141.9155,66.4679 142.7145,67.4769 143.5785,68.4159 M171.5005,116.7339 C167.9885,103.8099 159.5945,92.0199 159.8555,78.3009 C159.9285,74.4409 160.8555,70.4299 163.4785,67.5049 C163.9125,67.5579 164.3515,67.5719 164.7855,67.5309 C168.1545,67.2119 170.7355,64.4909 171.9515,61.4929 C173.4155,57.8859 173.4805,53.5769 173.3075,49.7399 C173.1835,46.9779 172.7315,44.1559 171.6805,41.5809 C171.2985,40.2199 170.5815,39.0019 169.6525,37.9809 C168.0095,35.8019 165.7905,34.0499 163.2035,33.2119 C163.1915,33.1789 163.1755,33.1469 163.1635,33.1139 C163.6025,30.9639 163.8995,28.6319 162.8145,26.6339 C162.4215,25.9109 161.8805,25.3109 161.2425,24.8699 C160.7515,22.8709 159.9425,21.0879 158.5405,19.6219 C158.1395,18.7569 157.5725,17.9689 156.8195,17.3269 C155.5445,16.2409 153.8755,15.7079 152.2415,15.7999 C151.7435,14.6939 151.0345,13.6469 150.0825,12.6939 C146.8415,9.4529 140.6905,8.1849 136.7525,10.9739 C136.4595,11.1819 136.1645,11.3959 135.8675,11.6099 C135.1265,8.8609 133.1875,6.5939 130.7025,5.1849 C130.5085,5.0309 130.3215,4.8689 130.1135,4.7279 C128.0405,3.3169 125.3355,2.7479 122.9075,3.3419 C122.3385,2.7839 121.7075,2.2929 121.0285,1.8699 C120.5285,1.2759 119.8555,0.8029 119.0985,0.5489 C118.2875,0.2779 117.4345,0.2119 116.5795,0.2259 C114.6375,-0.0761 112.6145,0.0949 110.7385,0.8179 C110.5515,0.8489 110.3615,0.8679 110.1755,0.9029 C106.6945,1.5449 103.1605,3.0479 100.7705,5.6169 C99.3165,5.6349 97.9235,5.2839 96.8585,4.4499 C93.6815,1.9629 90.3705,0.9649 87.0855,1.5909 C83.6395,1.9059 81.1685,4.2479 78.7225,6.5529 C77.8335,7.2779 76.9445,8.0019 76.0555,8.7269 C73.5075,7.2979 70.9725,5.8089 68.3435,4.5479 C65.8215,3.3379 62.9885,2.4959 60.2255,3.3969 C54.9225,5.1239 52.9685,10.6539 51.7075,15.5959 C47.7115,13.1979 42.7215,12.5509 38.2415,13.8839 C36.7455,14.3279 35.3525,15.0189 34.0695,15.8689 C31.8055,16.8919 29.7665,18.4469 28.1485,20.6259 C25.7325,23.8799 24.7345,27.7929 25.1945,31.5389 C24.4955,31.8209 23.6745,31.9739 23.1375,32.1849 C22.0385,32.6149 20.9805,33.1419 19.9865,33.7819 C17.4975,35.3829 15.3885,37.6019 13.9205,40.1779 C12.6105,41.7549 11.5775,43.5879 10.9545,45.7559 C9.4905,50.8549 10.7245,55.7419 13.5085,59.8039 C10.0695,60.6649 6.8515,62.3929 4.4485,65.0269 C2.6185,67.0319 1.4075,69.4799 0.9065,72.0739 C-0.5765,76.0229 -0.0615,80.6739 3.2625,83.7259 C3.4385,83.8879 3.6225,84.0319 3.8045,84.1809 C0.4355,86.0269 -0.4945,90.9599 0.2305,94.5029 C0.9475,98.0079 3.1175,101.1139 6.0925,103.0259 C5.6355,103.5479 5.2245,104.1269 4.8665,104.7669 C4.8515,104.7889 4.8325,104.8089 4.8175,104.8319 C4.4975,105.3059 4.2815,105.8209 4.1365,106.3549 C2.4115,111.0709 3.8605,117.3849 8.7495,119.7739 C9.8905,120.3309 10.0045,120.1529 10.4615,120.8639 C11.5085,122.4949 12.7795,123.6699 14.1595,124.4929 C13.1805,125.6229 12.6875,127.2039 13.0825,128.9819 C13.0925,129.0309 13.1065,129.0779 13.1175,129.1259 C13.0825,129.4279 13.0455,129.7299 13.0315,130.0319 C12.8635,133.8679 14.5125,137.4439 16.4185,140.6709 C18.4945,144.1889 20.5875,147.8239 23.0115,151.1149 C25.1955,154.0779 28.1285,156.7399 31.9205,157.2339 C34.9435,157.6259 38.1965,156.1819 39.5585,153.4699 C40.2095,154.0279 40.9265,154.5109 41.6875,154.9089 C42.6955,156.3309 44.2095,157.5359 45.4235,158.4799 C47.6725,160.2269 50.2605,161.6009 53.0575,162.2099 C58.1565,163.3219 63.8295,161.6729 66.8695,157.2849 C67.6615,158.1469 68.4905,158.9719 69.3635,159.7389 C75.6905,165.2929 83.7275,168.3429 91.5655,171.0819 C96.1835,172.6969 100.7985,174.3469 105.4235,175.9619 C105.5035,178.7089 105.5825,181.4569 105.6625,184.2039 C105.6955,185.3649 105.5325,186.7179 106.4985,187.5569 C106.8855,187.8929 107.3585,188.1029 107.7175,188.4719 C108.1155,188.8789 108.3995,189.3749 108.7295,189.8349 C110.1135,191.7649 112.1295,192.3599 114.4295,192.0049 C116.4155,191.6989 118.9965,190.8189 119.8475,188.8209 C120.4005,187.5229 120.2705,185.9369 120.1445,184.5659 C120.0205,183.2239 119.7645,181.9039 119.3925,180.6109 C126.1775,182.6399 133.7525,184.0209 140.4235,181.0849 C147.7285,177.8699 150.8515,170.2849 155.1185,164.0469 C155.2695,164.0249 155.4205,163.9719 155.5585,163.8389 C162.2945,157.4089 169.4275,150.2619 171.7905,141.0539 C172.0845,140.9509 172.3385,140.7109 172.3855,140.3279 C173.3345,132.6649 173.1945,124.9329 172.0225,117.3019 C171.9685,116.9539 171.7535,116.7839 171.5005,116.7339" id="Fill-4" fill="#231F20" mask="url(#mask-2)"></path>
            </g>
            <g id="eyes" transform="translate(82.989631, 81.577408)" fill="#231F20">
                <path d="M29.4494687,41.7596916 C28.8164687,45.3256916 27.8354687,49.7396916 24.6514687,51.9226916 C21.3674687,54.1726916 16.6154687,54.1266916 13.0954687,52.4826916 C9.84946874,50.9656916 7.49346874,48.1246916 6.41746874,44.7776916 C6.52746874,44.5646916 6.56446874,44.3096916 6.44946874,44.0386916 C5.01046874,40.6396916 3.50846874,37.0826916 3.33946874,33.3456916 C3.17846874,29.7786916 4.49046874,26.5166916 6.23046874,23.4696916 C7.89246874,20.5596916 9.69746874,17.5456916 11.8834687,14.9966916 C12.3564687,14.4456916 12.8674687,13.9186916 13.4084687,13.4266916 C13.1074687,14.6926916 13.1164687,16.0776916 13.2444687,17.2926916 C13.5824687,20.5086916 14.9074687,23.5406916 16.8214687,26.1286916 C18.6134687,28.5536916 20.8504687,30.7456916 23.3224687,32.4776916 C25.3034687,33.8656916 27.7824687,34.5816916 29.9434687,33.5436916 C30.0794687,36.2876916 29.9304687,39.0476916 29.4494687,41.7596916 M31.4724687,31.6966916 C31.0124687,26.8536916 29.6634687,22.1516916 27.4934687,17.8026916 C27.0744687,16.5336916 26.5114687,15.3196916 25.7914687,14.1926916 C25.7064687,14.0596916 25.6014687,13.9746916 25.4904687,13.9116916 C25.2594687,13.4166916 25.0144687,12.9286916 24.7354687,12.4586916 C23.8724687,11.0066916 22.5894687,9.66969164 21.0454687,9.05469164 C20.9184687,8.84869164 20.7074687,8.69669164 20.3894687,8.7006145 C20.1904687,8.70269164 19.9994687,8.72469164 19.8044687,8.73769164 C19.2524687,8.66969164 18.6784687,8.69369164 18.0844687,8.84069164 C17.9004687,8.88569164 17.7774687,8.98369164 17.6824687,9.09569164 C13.2214687,10.3326916 10.0484687,14.3396916 7.57346874,18.1756916 C4.29746874,23.2526916 1.02546874,28.5216916 1.82446874,34.8196916 C2.19746874,37.7536916 3.22246874,40.5286916 4.34846874,43.2486916 C4.35046874,43.2646916 4.34446874,43.2776916 4.34646874,43.2936916 C5.74846874,51.8226916 14.8344687,57.4836916 23.0924687,54.5146916 C27.2904687,53.0056916 29.2584687,49.3736916 30.3564687,45.2706916 C31.5334687,40.8656916 31.9034687,36.2336916 31.4724687,31.6966916" id="Fill-7"></path>
                <path d="M13.7390687,3.90029164 C8.48606874,5.21929164 3.70006874,8.19129164 0.206068738,12.3332916 C-0.472931262,13.1372916 0.686068738,14.3082916 1.37006874,13.4972916 C4.69706874,9.55529164 9.17406874,6.74529164 14.1770687,5.48829164 C15.2040687,5.22929164 14.7690687,3.64129164 13.7390687,3.90029164" id="Fill-11"></path>
                <path d="M72.7898687,4.56429164 C68.7178687,1.05629164 63.2558687,0.353291643 58.0848687,0.00229164325 C57.0278687,-0.0697083567 57.0318687,1.57829164 58.0848687,1.64929164 C62.7738687,1.96629164 67.9198687,2.53829164 71.6248687,5.72829164 C72.4248687,6.41729164 73.5948687,5.25729164 72.7898687,4.56429164" id="Fill-13"></path>
                <path d="M77.1003687,36.7644916 C76.6803687,39.4304916 75.7393687,42.4994916 73.7763687,44.4584916 C72.6163687,45.6164916 70.6893687,45.2684916 69.2013687,45.0444916 C67.6573687,44.8134916 66.1443687,44.3434916 64.8583687,43.4364916 C60.3573687,40.2574916 59.7413687,33.3144916 59.1583687,28.3204916 C58.5963687,23.5004916 58.6093687,18.2894916 60.3343687,13.7434916 C61.0893687,17.3604916 63.0153687,20.8014916 66.4573687,22.4464916 C69.4713687,23.8854916 73.8903687,23.7744916 76.1193687,21.1714916 C76.6153687,23.4044916 76.9033687,25.6904916 77.1323687,27.9544916 C77.4263687,30.8694916 77.5583687,33.8594916 77.1003687,36.7644916 M78.9653687,30.2664916 C78.7673687,26.8584916 78.3423687,23.3794916 77.5473687,20.0584916 C77.4543687,19.6714916 77.3493687,19.2854916 77.2403687,18.9014916 C77.2373687,18.7554916 77.2033687,18.6234916 77.1293687,18.5174916 C76.1973687,15.3994916 74.6863687,12.4084916 72.1913687,10.2624916 C71.1143687,9.33549164 69.9043687,8.59049164 68.6183687,8.07449164 C68.4883687,7.97249164 68.3613687,7.86749164 68.2283687,7.76949164 C67.2033687,7.01949164 65.9603687,6.24749164 64.6363687,6.39549164 C64.2343687,6.44049164 63.8743687,6.57449164 63.5553687,6.76349164 C63.2813687,6.61549164 62.9403687,6.61749164 62.6583687,6.91549164 C57.6543687,12.2234916 56.7153687,19.7624916 57.3473687,26.7454916 C57.6563687,30.1564916 58.1043687,33.6584916 59.0413687,36.9584916 C59.8163687,39.6904916 61.0683687,42.4504916 63.2953687,44.3004916 C65.7153687,46.3124916 69.4303687,47.2124916 72.5423687,46.8474916 C75.5703687,46.4914916 77.2443687,42.5414916 78.0393687,40.0054916 C79.0203687,36.8754916 79.1533687,33.5184916 78.9653687,30.2664916" id="Fill-15"></path>
            </g>
            <path d="M139.3576,130.4562 C137.3156,127.7392 135.2236,125.0602 133.1696,122.3522 C131.1836,119.7342 128.7846,116.1842 130.6526,112.8622 C131.1726,111.9372 129.7506,111.1062 129.2306,112.0312 C127.5726,114.9792 128.5156,118.3592 130.2286,121.0502 C132.3116,124.3222 134.9116,127.3242 137.2646,130.4052 C138.6076,132.1652 143.2736,138.4042 138.6786,139.1682 C136.7326,139.4912 134.7036,138.6722 132.9206,137.9912 C131.0626,137.2812 129.2626,136.4372 127.5116,135.4942 C126.5786,134.9912 125.7456,136.4132 126.6806,136.9162 C129.4586,138.4122 132.4846,139.8642 135.5726,140.5842 C137.9916,141.1472 141.4726,141.0122 142.1286,138.0252 C142.7366,135.2632 140.9296,132.5492 139.3576,130.4562" id="nose" fill="#231F20"></path>
            <path d="M145.3029,153.2433 C143.7259,158.3663 138.9259,162.3683 133.5309,162.7553 C128.0029,163.1513 122.6909,159.8263 120.3679,154.8563 C119.8239,153.6903 118.0999,154.7063 118.6419,155.8663 C121.2879,161.5303 127.6079,165.3323 133.8849,164.7253 C140.0509,164.1303 145.4139,159.6773 147.2309,153.7743 C147.6109,152.5423 145.6809,152.0143 145.3029,153.2433" id="mouth" fill="#231F20"></path>
        </g>
    </g>
</svg>

<svg width="500" height="600" xmlns="http://www.w3.org/2000/svg" xmlns:xlink="http://www.w3.org/1999/xlink"><defs><path id="a" d="M0 .084h173.375v192.018H0z"/></defs><g fill="none" fill-rule="evenodd"><g transform="translate(154 64.916)"><mask id="b" fill="#fff"><use xlink:href="#a"/></mask><path d="M171.048 137.386a.842.842 0 00-.286.534c-1.23 9.625-8.334 17.037-15.077 23.519-.322-.088-.697-.02-.947.314-4.09 5.46-6.691 12.604-12.565 16.504-6.53 4.334-14.805 2.959-21.877.903-3.937-1.144-7.794-2.567-11.667-3.908-4.346-1.504-8.69-3.01-13.035-4.512-7.66-2.652-15.522-5.225-22.215-9.931-6.144-4.32-11.24-10.936-11.985-18.547-.011-.09-.017-.178-.032-.267a19.649 19.649 0 01-.07-1.615c-.002-.814-.97-.998-1.42-.56-.475.123-.876.642-.566 1.205.23.414.366.853.443 1.298.017.18.032.362.054.54.067 1.41-.514 2.845-1.505 3.882-.849.888-1.94 1.397-3.105 1.624a1.69 1.69 0 00-1.056-.3c-3.56.253-6.227-2.973-8.412-5.342a131.582 131.582 0 01-8.142-9.705 2.67 2.67 0 00-.756-.681c-.112-.192-.233-.38-.343-.574l-.019-.037c-.008-.016-.02-.027-.027-.041-1.352-2.4-2.45-4.921-2.928-7.651-.23-1.304-.25-2.676.004-3.99.125-.116.245-.248.35-.411 1.065-1.643 2.83-2.728 4.73-3.101a5.351 5.351 0 002.34-.09 6.86 6.86 0 011.169.244c1.846.559 3.611 1.945 5.09 3.154 1.605 1.31 2.955 2.773 3.809 4.678.341.76 1.273 1.069 2.076.938.281.064.556.072.82.03a.828.828 0 00.446-.125c.551-.22.995-.672 1.194-1.302a9.385 9.385 0 00.416-3.33l.173-.576c.101-.333-.066-.715-.355-.905-.206-1.08-.558-2.138-1.003-3.17a52.666 52.666 0 00-7.91-19.71l1.622.618c1.276.487 2.587 1.13 3.942 1.35 1.124.183 2.174-.078 2.99-.701.714.325 1.562.356 2.242-.108a19.115 19.115 0 004.286-4 6.85 6.85 0 001.067-1.5 2.8 2.8 0 00.231-.613 24.114 24.114 0 002.533-5.464c2.69-2.391 3.511-6.292 3.441-9.953 2.772 3.319 6.848 5.473 11.175 5.948 5.599.617 10.991-2.023 14.364-6.452a16.34 16.34 0 002.255-4.074c.29-.516.566-1.038.83-1.567 2.22 3.676 5.74 6.636 9.99 7.535 5.061 1.07 10.177-1.314 12.686-5.846.544-.983.916-2.041 1.122-3.124.34 1.889.938 3.527 2.431 5.02.644.644 1.462 1.215 2.355 1.665 1.492 1.37 3.356 2.272 5.731 2.344 2.876.088 5.325-1.668 6.71-4.102 1.055-1.853 1.442-3.912 1.561-6.005 2.077 3.07 5.7 5.125 9.463 4.874 3.912-.261 7.293-2.787 8.953-6.208a8.127 8.127 0 002.621.892c.082.039.16.087.243.123-4.288 5.383-3.986 13.344-2.62 19.747 1.602 7.525 5.044 14.483 7.857 21.595 1.623 4.1 3.05 8.286 3.852 12.63.017.09.054.156.09.224a82.307 82.307 0 01.166 16.166m-53.166 51.449c-.763.768-1.98 1.147-3.007 1.404-1.096.274-2.359.403-3.418-.082-1.12-.513-1.592-1.711-2.351-2.603-.341-.4-.736-.691-1.167-.982-.656-.444-.587-.887-.608-1.636-.082-2.8-.163-5.601-.243-8.401a436.517 436.517 0 0010.48 3.51.792.792 0 00.035.313c.472 1.46.8 2.959.919 4.49.097 1.258.337 3.006-.64 3.987M106.456 3.692a9.546 9.546 0 01-2.403 1.297c.754-.504 1.56-.94 2.403-1.297m30.34 69.749c.025-.028.049-.06.074-.087-1.056 1.387-2.542 2.344-4.326 2.428 1.603-.374 3.12-1.11 4.251-2.341m6.784-5.025a9.634 9.634 0 01-2.386-3.011 26.27 26.27 0 002.386 3.01m27.922 48.319c-3.512-12.924-11.905-24.714-11.644-38.433.073-3.86 1-7.871 3.623-10.796.433.053.872.067 1.306.026 3.37-.32 5.95-3.04 7.167-6.038 1.464-3.607 1.529-7.916 1.356-11.753-.124-2.762-.576-5.584-1.627-8.16-.383-1.36-1.1-2.578-2.029-3.6-1.642-2.178-3.861-3.93-6.448-4.768-.013-.033-.029-.065-.04-.098.439-2.15.736-4.482-.35-6.48a5.09 5.09 0 00-1.571-1.764c-.492-2-1.3-3.782-2.702-5.248a6.68 6.68 0 00-1.721-2.295 6.537 6.537 0 00-4.578-1.527 10.445 10.445 0 00-2.16-3.106c-3.24-3.241-9.392-4.51-13.33-1.72-.293.208-.588.422-.885.636-.74-2.75-2.68-5.016-5.165-6.425-.194-.154-.38-.316-.589-.457-2.072-1.411-4.778-1.98-7.206-1.386a10.94 10.94 0 00-1.879-1.472 4.362 4.362 0 00-1.93-1.321c-.81-.271-1.663-.337-2.519-.323-1.941-.302-3.964-.131-5.84.592-.188.03-.377.05-.564.085-3.48.642-7.014 2.145-9.404 4.714-1.454.018-2.847-.333-3.912-1.167-3.177-2.487-6.488-3.485-9.773-2.86-3.447.316-5.918 2.658-8.364 4.963l-2.666 2.174c-2.549-1.43-5.084-2.918-7.712-4.18-2.522-1.21-5.355-2.051-8.118-1.15-5.303 1.727-7.258 7.257-8.518 12.199-3.996-2.398-8.986-3.045-13.466-1.712-1.496.444-2.89 1.135-4.172 1.985a14.964 14.964 0 00-5.922 4.757c-2.415 3.254-3.413 7.167-2.953 10.913-.7.282-1.52.435-2.058.646-1.099.43-2.157.957-3.15 1.597a18.612 18.612 0 00-6.066 6.396 15.206 15.206 0 00-2.966 5.578c-1.464 5.099-.23 9.986 2.553 14.048-3.438.86-6.656 2.589-9.06 5.223a14.553 14.553 0 00-3.542 7.047c-1.482 3.949-.968 8.6 2.357 11.652.175.162.36.306.542.455C.434 86.027-.495 90.96.23 94.503c.718 3.505 2.888 6.61 5.862 8.523a10.177 10.177 0 00-1.225 1.74c-.016.023-.035.043-.05.066a5.07 5.07 0 00-.68 1.523c-1.725 4.716-.276 11.03 4.612 13.419 1.141.557 1.255.379 1.712 1.09 1.047 1.63 2.319 2.806 3.698 3.629-.979 1.13-1.472 2.71-1.077 4.489.01.049.024.096.035.144-.035.302-.072.604-.086.906-.168 3.836 1.481 7.412 3.388 10.639 2.075 3.518 4.168 7.153 6.593 10.444 2.183 2.963 5.116 5.625 8.909 6.119 3.023.392 6.276-1.052 7.638-3.764a11.373 11.373 0 002.129 1.439c1.008 1.422 2.521 2.627 3.735 3.57 2.25 1.748 4.837 3.122 7.634 3.73 5.1 1.113 10.773-.536 13.813-4.924a32.793 32.793 0 002.493 2.454c6.328 5.554 14.365 8.604 22.203 11.343 4.617 1.615 9.233 3.265 13.858 4.88l.238 8.242c.033 1.16-.13 2.514.837 3.353.386.336.86.546 1.219.915.397.407.681.903 1.011 1.363 1.385 1.93 3.4 2.525 5.7 2.17 1.986-.306 4.567-1.186 5.418-3.184.553-1.298.424-2.884.297-4.255a21.42 21.42 0 00-.752-3.955c6.785 2.029 14.36 3.41 21.031.474 7.305-3.215 10.428-10.8 14.696-17.038a.763.763 0 00.44-.208c6.736-6.43 13.869-13.577 16.232-22.785a.865.865 0 00.595-.726c.948-7.663.809-15.395-.363-23.026-.054-.348-.27-.518-.523-.568" fill="#231F20" mask="url(#b)"/></g><path d="M266.44 187.337c-.634 3.566-1.615 7.98-4.799 10.163-3.284 2.25-8.036 2.204-11.556.56-3.246-1.517-5.602-4.358-6.678-7.705a.843.843 0 00.032-.739c-1.439-3.399-2.94-6.956-3.11-10.693-.16-3.567 1.151-6.829 2.891-9.876 1.662-2.91 3.467-5.924 5.653-8.473a17.92 17.92 0 011.525-1.57c-.3 1.266-.292 2.651-.164 3.866.338 3.216 1.663 6.248 3.577 8.836a28.531 28.531 0 006.501 6.35c1.981 1.387 4.46 2.103 6.621 1.065a36.668 36.668 0 01-.494 8.216m2.023-10.063a39.45 39.45 0 00-3.979-13.894 16.016 16.016 0 00-1.702-3.61.83.83 0 00-.3-.28 16.524 16.524 0 00-.756-1.454c-.863-1.452-2.146-2.789-3.69-3.404a.721.721 0 00-.656-.354c-.199.002-.39.024-.585.037a4.703 4.703 0 00-1.72.103.742.742 0 00-.402.255c-4.46 1.237-7.634 5.244-10.109 9.08-3.276 5.077-6.548 10.346-5.749 16.644.373 2.934 1.398 5.71 2.524 8.43.002.015-.004.028-.002.044 1.402 8.53 10.488 14.19 18.746 11.221 4.198-1.509 6.166-5.14 7.264-9.244a38.627 38.627 0 001.116-13.574m-17.733-27.796c-5.253 1.319-10.04 4.29-13.533 8.433-.68.804.48 1.975 1.164 1.164a24.622 24.622 0 0112.807-8.01c1.027-.258.592-1.846-.438-1.587m59.051.664c-4.073-3.508-9.535-4.211-14.706-4.562-1.057-.072-1.053 1.576 0 1.647 4.69.317 9.835.889 13.54 4.079.8.689 1.97-.471 1.165-1.164m4.311 32.2c-.42 2.666-1.361 5.735-3.324 7.694-1.16 1.158-3.087.81-4.575.586-1.544-.231-3.057-.701-4.343-1.608-4.501-3.18-5.117-10.122-5.7-15.116-.562-4.82-.549-10.031 1.176-14.577.755 3.617 2.681 7.058 6.123 8.703 3.014 1.439 7.433 1.328 9.662-1.275.496 2.233.784 4.519 1.013 6.783.294 2.915.426 5.905-.032 8.81m1.865-6.498c-.198-3.408-.623-6.887-1.418-10.208a29.424 29.424 0 00-.307-1.157.686.686 0 00-.111-.384c-.932-3.118-2.443-6.11-4.938-8.255a12.815 12.815 0 00-3.573-2.188c-.13-.102-.257-.207-.39-.305-1.025-.75-2.268-1.522-3.592-1.374a2.695 2.695 0 00-1.081.368.71.71 0 00-.897.152c-5.004 5.308-5.943 12.847-5.311 19.83.309 3.41.757 6.913 1.694 10.213.775 2.732 2.027 5.492 4.254 7.342 2.42 2.012 6.135 2.912 9.247 2.547 3.028-.356 4.702-4.306 5.497-6.842.981-3.13 1.114-6.487.926-9.74m-22.597 18.613c-2.042-2.717-4.134-5.396-6.188-8.104-1.986-2.618-4.385-6.168-2.517-9.49.52-.925-.902-1.756-1.422-.83-1.658 2.947-.715 6.327.998 9.018 2.083 3.272 4.683 6.274 7.036 9.355 1.343 1.76 6.009 8 1.414 8.763-1.946.323-3.975-.496-5.758-1.177a46.191 46.191 0 01-5.41-2.497c-.932-.503-1.765.92-.83 1.422 2.778 1.496 5.804 2.948 8.892 3.668 2.419.563 5.9.428 6.556-2.559.608-2.762-1.2-5.476-2.771-7.569m5.945 22.787c-1.577 5.123-6.377 9.125-11.772 9.512-5.528.396-10.84-2.929-13.163-7.899-.544-1.166-2.268-.15-1.726 1.01 2.646 5.664 8.966 9.466 15.243 8.86 6.166-.596 11.529-5.049 13.346-10.952.38-1.232-1.55-1.76-1.928-.53" fill="#231F20"/></g></svg>
